assets/logos/logo.svg

<svg xmlns="http://www.w3.org/2000/svg" width="1715" height="1722" fill="none">
  <path fill="#007AFF" d="M245.128 48.2854C87.2805 126.285 0 273 0 453.143c0 55.714 9.2852 124.428 20.4273 154.142C48.2828 683.428 129.992 781.857 150.42 768.857c11.142-7.429 3.714-27.857-18.571-52C-3.714 572 9.2852 286 159.705 144.857 276.698 37.1426 477.257 5.5711 622.106 72.4283 666.674 92.8569 809.666 221 973.084 386.285c152.276 154.143 285.986 274.858 295.266 269.286C1277.64 650 1160.64 520 1010.23 367.714 698.244 53.8569 616.534-.0003 443.83-.0003c-72.424 0-129.992 13-198.702 48.2857Z"/>
  <path fill="#007AFF" d="M1086.36 35.2861C989.798 81.7147 934.087 124.429 950.801 141.143c9.285 7.429 29.712 0 48.282-16.714C1086.36 44.5718 1266.5 14.8575 1415.06 55.7147 1515.34 83.5718 1643.47 234 1669.47 354.715c20.43 94.714 5.57 219.143-39 302.714-11.14 20.429-155.99 176.429-321.26 345.431-165.28 169-304.56 319.43-311.984 336.14-14.856 44.57 35.284 131.86 105.854 180.14 92.85 63.15 250.7 61.29 337.98-5.57 81.71-63.14 122.56-141.14 122.56-243.28 0-83.58-50.14-193.15-92.85-208-14.86-3.72-9.29 16.71 13 55.71 64.99 109.57 59.42 232.14-16.71 317.57-68.71 78-170.85 111.43-263.7 87.29-79.86-22.29-181.99-111.43-181.99-159.72 0-16.71 144.85-178.28 323.12-358.43 347.27-352.852 371.41-389.995 369.55-570.138-1.86-178.286-141.13-371.4288-300.84-416.0002-103.99-27.8571-245.13-20.4286-326.84 16.7143Z"/>
  <path fill="#007AFF" d="M297.125 189.429c-90.995 63.143-133.707 131.857-144.849 234-7.428 92.857 20.427 178.285 77.995 224.714 38.998 33.429 37.141 14.857-7.428-57.571-103.993-170.858 22.285-404.858 217.273-404.858 107.708 0 161.562 37.143 432.688 308.286 148.566 146.714 278.556 267.429 287.836 267.429 27.86 0-531.107-555.286-588.675-586.857-76.138-40.858-202.416-33.429-274.84 14.857Z"/>
  <path fill="#007AFF" d="M1140.22 174.572c-61.28 27.857-92.85 61.285-74.28 79.857 5.57 7.428 27.85-3.715 48.28-22.286 52-46.429 202.42-57.571 274.84-20.429 89.14 46.429 137.42 128.143 137.42 232.143 0 50.143-7.43 104-14.86 118.857-9.28 14.858-161.56 174.572-336.12 352.858L854.235 1240.57l-142.992-146.71C633.248 1014 566.395 950.857 560.824 956.429c-5.571 3.714 51.996 74.281 126.278 157.861 103.993 115.14 135.563 163.42 142.991 219.14C854.235 1508 662.96 1677 445.688 1677c-291.554 0-493.9706-304.57-380.6917-577.57C83.5666 1058.57 209.845 915.572 382.549 741c159.704-159.714 282.268-295.286 271.126-302.714C625.82 421.572 77.9955 991.714 37.1408 1080.86c-44.5687 98.43-48.2828 267.43-7.4281 364C98.4228 1610.14 259.985 1716 445.688 1716c148.562 0 243.271-44.57 350.979-167.14 40.854-48.29 76.138-78 76.138-66.86 0 35.29 115.136 152.29 183.845 189.43 302.7 154.14 659.25-63.14 657.39-399.29 0-61.28-13-141.14-29.71-176.43-39-85.42-100.28-161.567-117-142.996-7.42 7.429 0 27.858 14.86 44.572 146.71 167.144 118.85 460.574-53.85 592.424-178.28 135.58-430.83 111.43-577.54-55.71-61.282-70.57-89.137-167.14-68.71-237.71 7.428-22.29 148.56-180.15 315.7-349.147 165.27-169 313.83-326.857 332.4-352.857 42.72-65 39-235.857-7.42-304.572-79.86-122.571-248.85-172.714-382.55-115.142ZM376.977 315.714c-76.138 31.572-103.994 144.857-53.854 215.429 25.999 33.428 31.57 31.571 135.564-70.572 70.567-72.428 100.279-113.285 87.28-126.285-27.855-27.857-122.564-39-168.99-18.572Z"/>
  <path fill="#007AFF" d="M1194.07 321.286c-42.71 22.286-40.85 26 65 130 118.85 118.857 152.27 117 152.27-7.429 0-115.143-115.13-180.143-217.27-122.571ZM460.543 832c-243.271 245.14-291.554 302.71-302.696 362.14-38.997 209.86 83.567 367.72 285.983 369.57 154.134 0 261.841-83.57 261.841-202.42 0-50.15-22.284-85.43-118.85-185.72-64.996-70.57-126.278-120.71-133.706-113.28-7.428 9.28 42.712 72.42 109.565 143 68.71 70.57 124.421 143 124.421 159.71 0 16.71-24.141 53.86-51.997 83.57-180.132 178.29-469.829 44.57-445.687-206.14 11.142-107.72 64.996-174.57 373.263-475.43 118.85-115.143 209.845-213.572 200.559-217.286-7.428-5.572-144.848 122.571-302.696 282.286Z"/>
  <path fill="#007AFF" d="m742.813 754-98.422 102.143L748.384 962l105.851 105.86L960.086 962l107.704-107.714-102.133-102.143C909.946 696.429 859.806 650 854.235 650c-5.571 0-55.711 46.429-111.422 104ZM319.41 1188.57c-61.282 98.43 9.285 222.86 126.278 222.86 122.564 0 122.564-35.29 3.714-154.14-100.28-100.29-107.708-104-129.992-68.72Zm937.8 70.57c-118.85 118.86-116.99 152.29 9.29 152.29 118.85 0 191.27-135.57 120.7-228.43-20.42-29.71-33.42-22.29-129.99 76.14Z"/>
</svg>

<svg width="1715" height="1722" viewBox="0 0 1715 1722" fill="none" xmlns="http://www.w3.org/2000/svg">
<path d="M245.128 48.2854C87.2805 126.285 0 273 0 453.143C0 508.857 9.28516 577.571 20.4273 607.285C48.2828 683.428 129.992 781.857 150.42 768.857C161.562 761.428 154.134 741 131.849 716.857C-3.71406 572 9.28516 286 159.705 144.857C276.698 37.1426 477.257 5.57114 622.106 72.4283C666.674 92.8569 809.666 221 973.084 386.285C1125.36 540.428 1259.07 661.143 1268.35 655.571C1277.64 650 1160.64 520 1010.23 367.714C698.244 53.8569 616.534 -0.000291295 443.83 -0.000291295C371.406 -0.000291295 313.838 12.9997 245.128 48.2854Z" fill="#007AFF"/>
<path d="M1086.36 35.2861C989.798 81.7147 934.087 124.429 950.801 141.143C960.086 148.572 980.513 141.143 999.083 124.429C1086.36 44.5718 1266.5 14.8575 1415.06 55.7147C1515.34 83.5718 1643.47 234 1669.47 354.715C1689.9 449.429 1675.04 573.858 1630.47 657.429C1619.33 677.858 1474.48 833.858 1309.21 1002.86C1143.93 1171.86 1004.65 1322.29 997.226 1339C982.37 1383.57 1032.51 1470.86 1103.08 1519.14C1195.93 1582.29 1353.78 1580.43 1441.06 1513.57C1522.77 1450.43 1563.62 1372.43 1563.62 1270.29C1563.62 1186.71 1513.48 1077.14 1470.77 1062.29C1455.91 1058.57 1461.48 1079 1483.77 1118C1548.76 1227.57 1543.19 1350.14 1467.06 1435.57C1398.35 1513.57 1296.21 1547 1203.36 1522.86C1123.5 1500.57 1021.37 1411.43 1021.37 1363.14C1021.37 1346.43 1166.22 1184.86 1344.49 1004.71C1691.76 651.858 1715.9 614.715 1714.04 434.572C1712.18 256.286 1572.91 63.1432 1413.2 18.5718C1309.21 -9.28534 1168.07 -1.85677 1086.36 35.2861Z" fill="#007AFF"/>
<path d="M297.125 189.429C206.13 252.572 163.418 321.286 152.276 423.429C144.848 516.286 172.703 601.714 230.271 648.143C269.269 681.572 267.412 663 222.843 590.572C118.85 419.714 245.128 185.714 440.116 185.714C547.824 185.714 601.678 222.857 872.804 494C1021.37 640.714 1151.36 761.429 1160.64 761.429C1188.5 761.429 629.533 206.143 571.965 174.572C495.827 133.714 369.549 141.143 297.125 189.429Z" fill="#007AFF"/>
<path d="M1140.22 174.572C1078.94 202.429 1047.37 235.857 1065.94 254.429C1071.51 261.857 1093.79 250.714 1114.22 232.143C1166.22 185.714 1316.64 174.572 1389.06 211.714C1478.2 258.143 1526.48 339.857 1526.48 443.857C1526.48 494 1519.05 547.857 1511.62 562.714C1502.34 577.572 1350.06 737.286 1175.5 915.572L854.235 1240.57L711.243 1093.86C633.248 1014 566.395 950.857 560.824 956.429C555.253 960.143 612.82 1030.71 687.102 1114.29C791.095 1229.43 822.665 1277.71 830.093 1333.43C854.235 1508 662.96 1677 445.688 1677C154.134 1677 -48.2826 1372.43 64.9963 1099.43C83.5666 1058.57 209.845 915.572 382.549 741C542.253 581.286 664.817 445.714 653.675 438.286C625.82 421.572 77.9955 991.714 37.1408 1080.86C-7.42794 1179.29 -11.142 1348.29 29.7127 1444.86C98.4228 1610.14 259.985 1716 445.688 1716C594.25 1716 688.959 1671.43 796.667 1548.86C837.521 1500.57 872.805 1470.86 872.805 1482C872.805 1517.29 987.941 1634.29 1056.65 1671.43C1359.35 1825.57 1715.9 1608.29 1714.04 1272.14C1714.04 1210.86 1701.04 1131 1684.33 1095.71C1645.33 1010.29 1584.05 934.143 1567.33 952.714C1559.91 960.143 1567.33 980.572 1582.19 997.286C1728.9 1164.43 1701.04 1457.86 1528.34 1589.71C1350.06 1725.29 1097.51 1701.14 950.8 1534C889.518 1463.43 861.663 1366.86 882.09 1296.29C889.518 1274 1030.65 1116.14 1197.79 947.143C1363.06 778.143 1511.62 620.286 1530.19 594.286C1572.91 529.286 1569.19 358.429 1522.77 289.714C1442.91 167.143 1273.92 117 1140.22 174.572Z" fill="#007AFF"/>
<path d="M376.977 315.714C300.839 347.286 272.983 460.571 323.123 531.143C349.122 564.571 354.693 562.714 458.687 460.571C529.254 388.143 558.966 347.286 545.967 334.286C518.112 306.429 423.403 295.286 376.977 315.714Z" fill="#007AFF"/>
<path d="M1194.07 321.286C1151.36 343.572 1153.22 347.286 1259.07 451.286C1377.92 570.143 1411.34 568.286 1411.34 443.857C1411.34 328.714 1296.21 263.714 1194.07 321.286Z" fill="#007AFF"/>
<path d="M460.543 832C217.272 1077.14 168.989 1134.71 157.847 1194.14C118.85 1404 241.414 1561.86 443.83 1563.71C597.964 1563.71 705.671 1480.14 705.671 1361.29C705.671 1311.14 683.387 1275.86 586.821 1175.57C521.825 1105 460.543 1054.86 453.115 1062.29C445.687 1071.57 495.827 1134.71 562.68 1205.29C631.39 1275.86 687.101 1348.29 687.101 1365C687.101 1381.71 662.96 1418.86 635.104 1448.57C454.972 1626.86 165.275 1493.14 189.417 1242.43C200.559 1134.71 254.413 1067.86 562.68 767C681.53 651.857 772.525 553.428 763.239 549.714C755.811 544.142 618.391 672.285 460.543 832Z" fill="#007AFF"/>
<path d="M742.813 754L644.391 856.143L748.384 962L854.235 1067.86L960.086 962L1067.79 854.286L965.657 752.143C909.946 696.429 859.806 650 854.235 650C848.664 650 798.524 696.429 742.813 754Z" fill="#007AFF"/>
<path d="M319.41 1188.57C258.128 1287 328.695 1411.43 445.688 1411.43C568.252 1411.43 568.252 1376.14 449.402 1257.29C349.122 1157 341.694 1153.29 319.41 1188.57Z" fill="#007AFF"/>
<path d="M1257.21 1259.14C1138.36 1378 1140.22 1411.43 1266.5 1411.43C1385.35 1411.43 1457.77 1275.86 1387.2 1183C1366.78 1153.29 1353.78 1160.71 1257.21 1259.14Z" fill="#007AFF"/>
</svg>
